X:1
T:Title
%%score { ( 1 2 5 ) | ( 3 4 ) }
L:1/8
M:9/8
K:Eb
V:1 treble nm="Grand Piano"
V:2 treble 
V:5 treble 
V:3 bass 
V:4 bass 
V:1
 z3 z3[Q:1/4=100] z FG | A3 G3 GA[EGB] | [EAc]3 [EGB]3 .[B,GB]2 [Gd] | [Ge]3- [Ge]2 [EG] GFE | %4
[M:3/4] [DF]6 |[M:3/8] [DF][EG][FA] |[M:9/8] [FA]3 [EG]3 [EG][FA][GB] | [Ec]3 B3 BeG | %8
 B3- Bc[DB] AG[A,DF] |[M:3/4] [G,E]6 |[M:3/8] B z [Gd] |[M:9/8] [Ge]3 [Ge]3 [=Ae]dc | %12
 [Fd]3 [Fd]3 dcB | [Gc]3- [Gc]2 [Gc] [E=Ac][FB][CFA] | %14
[M:15/16] [DFB]3/2-[DFB]3/2-[DFB]3/2- [DFB]3 |[M:3/8] z3 |[M:9/8] e2- [Ge] e2- [Ge] GAB | %17
 c3 c3 z3 | .A6 z3 |[M:3/4] E6 |] %20
V:2
 z3 z3 .E3 | x9 | x9 | x9 |[M:3/4] x6 |[M:3/8] x3 |[M:9/8] x9 | x9 | D6 .D3 |[M:3/4] x6 | %10
[M:3/8] [B,G]2 z |[M:9/8] x9 | x9 | x9 |[M:15/16] x15/2 |[M:3/8] x3 |[M:9/8] .G3 .G3 z3 | %17
 E2 E E2 E EFG | D2 D z B[DA] [DG]2 [DF] |[M:3/4] x6 |] %20
V:3
 z3 z3 G,A,[E,B,E] | [E,CE]3 [E,B,E]3 EFE, | A,3 E,3 z[K:treble] c[K:bass][D,B,] | %3
 [C,C]3- [C,C]2 [C,C] [F,=A,C]2 [F,A,C] |[M:3/4] [B,,B,]6 |[M:3/8] [B,,B,]2 [B,,B,] | %6
[M:9/8] [B,,B,]3 [E,B,]3 [E,B,]2 [E,B,] | [A,,A,]3 [E,G,E]3 [E,G,E]2 [E,G,E] | z3 z3 .F,3 | %9
[M:3/4] E,6 |[M:3/8] z[K:treble] c[K:bass][D,=B,] |[M:9/8] [C,C]3 [C,C]3 C[K:treble][B,F][F,=A,F] | %12
 [B,,B,]3 [B,,B,]3 [G,B,D]2 [G,B,D] | [E,E]3- [E,E]2 [E,E] z DF, | %14
[M:15/16] B,,D,/-D,/F,A,3/2- A,3 |[M:3/8][K:treble] Bcd | %16
[M:9/8][K:bass] [E,B,]2 [E,B,] [E,B,]2 [E,B,] z3 | [A,,A,]2 [A,,A,] [A,,A,]2 [A,,A,] z3 | %18
 [B,,F,]2 [B,,F,] [B,,F,]2 [B,,F,] [B,,B,]2 [B,,A,] |[M:3/4] [E,G,]6 |] %20
V:4
 z3 z3 .E,3 | z3 z3 .[E,B,]3 | z3 z3 .E,3[K:treble][K:bass] | x9 |[M:3/4] x6 |[M:3/8] x3 | %6
[M:9/8] x9 | x9 | [B,,F,]3- [B,,F,]2 [B,,F,] B,,-[B,,B,]B,, |[M:3/4] x6 | %10
[M:3/8] E,2[K:treble][K:bass] z |[M:9/8] z3 z3 .F,3[K:treble] | x9 | z3 z3 .F,3 |[M:15/16] x15/2 | %15
[M:3/8][K:treble] x3 |[M:9/8][K:bass] x9 | x9 | x9 |[M:3/4] x6 |] %20
V:5
 x9 | x9 | x9 | x9 |[M:3/4] x6 |[M:3/8] x3 |[M:9/8] x9 | x9 | x9 |[M:3/4] x6 |[M:3/8] x3 | %11
[M:9/8] x9 | x9 | x9 |[M:15/16] x15/2 |[M:3/8] x3 |[M:9/8] x9 | x9 | z3 .D3 z3 |[M:3/4] x6 |] %20

